;FLAVOR:UltiGCode
;TIME:6387
;MATERIAL:12672
;MATERIAL2:0
;NOZZLE_DIAMETER:0.6
;MINX:69.691
;MINY:87.07
;MINZ:0.4
;MAXX:156.502
;MAXY:135.93
;MAXZ:18.55
;Generated with Cura_SteamEngine 4.8.0
M82 ;absolute extrusion mode
G0 F3000 Y50 ;avoid prime blob
G92 E0
G92 E0
G10
;LAYER_COUNT:122
;LAYER:0
M107
G0 F3927.3 X72.853 Y89.932 Z0.4
;TYPE:SKIRT
G11
G1 F1800 X73.504 Y89.45 E0.17172
G1 X74.2 Y89.034 E0.34362
G1 X74.933 Y88.689 E0.51537
G1 X75.697 Y88.418 E0.68723
G1 X76.483 Y88.223 E0.85891
G1 X77.285 Y88.107 E1.0307
G1 X78.061 Y88.07 E1.1954
G1 X79.545 Y88.07 E1.51001
G1 X80.354 Y88.11 E1.68173
G1 X81.156 Y88.23 E1.85364
G1 X81.942 Y88.427 E2.02543
G1 X82.704 Y88.702 E2.19717
G1 X83.056 Y88.87 E2.27986
G1 X83.623 Y88.45 E2.42945
G1 X84.319 Y88.034 E2.60135
G1 X85.052 Y87.689 E2.7731
G1 X85.816 Y87.418 E2.94495
G1 X86.602 Y87.223 E3.11664
G1 X87.404 Y87.107 E3.28843
G1 X88.18 Y87.07 E3.45313
G1 X91.055 Y87.07 E4.06263
G1 X91.864 Y87.11 E4.23435
G1 X92.666 Y87.23 E4.40626
G1 X93.452 Y87.427 E4.57805
G1 X94.214 Y87.702 E4.74979
G1 X94.946 Y88.05 E4.92162
G1 X95.64 Y88.469 E5.09348
G1 X96.2 Y88.886 E5.2415
G1 X96.268 Y88.85 E5.25781
G1 X97.018 Y88.542 E5.4297
G1 X97.794 Y88.309 E5.60147
G1 X98.59 Y88.154 E5.77339
G1 X99.763 Y88.07 E6.0227
G1 X126.289 Y88.07 E11.64621
G1 X127.098 Y88.11 E11.81793
G1 X127.9 Y88.23 E11.98985
G1 X128.686 Y88.427 E12.16163
G1 X129.448 Y88.702 E12.33338
G1 X129.8 Y88.87 E12.41606
G1 X130.367 Y88.45 E12.56565
G1 X131.063 Y88.034 E12.73755
G1 X131.796 Y87.689 E12.9093
G1 X132.56 Y87.418 E13.08116
G1 X133.346 Y87.223 E13.25284
G1 X134.148 Y87.107 E13.42463
G1 X134.924 Y87.07 E13.58933
G1 X137.694 Y87.07 E14.17657
G1 X138.503 Y87.11 E14.34829
G1 X139.305 Y87.23 E14.52021
G1 X140.091 Y87.427 E14.69199
G1 X140.853 Y87.702 E14.86373
G1 X141.585 Y88.05 E15.03556
G1 X142.279 Y88.469 E15.20743
G1 X142.817 Y88.87 E15.34968
G1 X143.233 Y88.676 E15.44699
G1 X143.998 Y88.408 E15.61883
G1 X144.786 Y88.216 E15.79078
G1 X145.588 Y88.104 E15.96245
G1 X146.33 Y88.07 E16.11992
G1 X148.038 Y88.07 E16.48202
G1 X148.847 Y88.11 E16.65373
G1 X149.649 Y88.23 E16.82565
G1 X150.435 Y88.427 E16.99744
G1 X151.197 Y88.702 E17.16918
G1 X151.929 Y89.05 E17.34101
G1 X152.623 Y89.469 E17.51287
G1 X153.273 Y89.954 E17.6848
G1 X153.847 Y90.476 E17.84928
G1 X154.007 Y90.636 E17.89726
G1 X154.551 Y91.237 E18.06911
G1 X155.033 Y91.888 E18.24083
G1 X155.449 Y92.584 E18.41273
G1 X155.794 Y93.317 E18.58448
G1 X156.065 Y94.081 E18.75634
G1 X156.26 Y94.867 E18.92802
G1 X156.376 Y95.669 E19.09981
G1 X156.413 Y96.453 E19.26621
G1 X156.412 Y97.994 E19.5929
G1 X156.48 Y98.544 E19.71039
G1 X156.502 Y99.151 E19.83916
G1 X156.502 Y123.808 E25.06644
G1 X156.462 Y124.617 E25.23816
G1 X156.412 Y124.988 E25.31752
G1 X156.412 Y126.56 E25.65078
G1 X156.372 Y127.369 E25.8225
G1 X156.252 Y128.171 E25.99442
G1 X156.055 Y128.957 E26.1662
G1 X155.78 Y129.719 E26.33795
G1 X155.432 Y130.451 E26.50977
G1 X155.013 Y131.145 E26.68164
G1 X154.528 Y131.795 E26.85357
G1 X154.006 Y132.369 E27.01805
G1 X153.851 Y132.524 E27.06452
G1 X153.25 Y133.068 E27.23638
G1 X152.599 Y133.55 E27.4081
G1 X151.903 Y133.966 E27.58
G1 X151.17 Y134.311 E27.75175
G1 X150.406 Y134.582 E27.92361
G1 X149.62 Y134.777 E28.09529
G1 X148.818 Y134.893 E28.26708
G1 X148.042 Y134.93 E28.43178
G1 X146.33 Y134.93 E28.79473
G1 X145.521 Y134.89 E28.96644
G1 X144.719 Y134.77 E29.13836
G1 X143.933 Y134.573 E29.31015
G1 X143.171 Y134.298 E29.48189
G1 X142.819 Y134.13 E29.56458
G1 X142.252 Y134.55 E29.71417
G1 X141.556 Y134.966 E29.88607
G1 X140.823 Y135.311 E30.05781
G1 X140.059 Y135.582 E30.22967
G1 X139.273 Y135.777 E30.40135
G1 X138.471 Y135.893 E30.57315
G1 X137.695 Y135.93 E30.73784
G1 X134.925 Y135.93 E31.32508
G1 X134.116 Y135.89 E31.4968
G1 X133.314 Y135.77 E31.66872
G1 X132.528 Y135.573 E31.8405
G1 X131.766 Y135.298 E32.01225
G1 X131.034 Y134.95 E32.18408
G1 X130.34 Y134.531 E32.35594
G1 X129.802 Y134.13 E32.49819
G1 X129.386 Y134.324 E32.5955
G1 X128.621 Y134.592 E32.76735
G1 X127.833 Y134.784 E32.93929
G1 X127.031 Y134.896 E33.11096
G1 X126.289 Y134.93 E33.26843
G1 X99.772 Y134.93 E38.89004
G1 X98.963 Y134.89 E39.06175
G1 X98.161 Y134.77 E39.23367
G1 X97.375 Y134.573 E39.40546
G1 X96.613 Y134.298 E39.5772
G1 X96.261 Y134.13 E39.65989
G1 X95.694 Y134.55 E39.80948
G1 X94.998 Y134.966 E39.98138
G1 X94.265 Y135.311 E40.15312
G1 X93.501 Y135.582 E40.32498
G1 X92.715 Y135.777 E40.49666
G1 X91.913 Y135.893 E40.66846
G1 X91.137 Y135.93 E40.83315
G1 X88.181 Y135.93 E41.45983
G1 X87.372 Y135.89 E41.63154
G1 X86.57 Y135.77 E41.80346
G1 X85.784 Y135.573 E41.97525
G1 X85.022 Y135.298 E42.14699
G1 X84.29 Y134.95 E42.31882
G1 X83.596 Y134.531 E42.49068
G1 X83.058 Y134.13 E42.63293
G1 X82.642 Y134.324 E42.73024
G1 X81.877 Y134.592 E42.90209
G1 X81.089 Y134.784 E43.07403
G1 X80.287 Y134.896 E43.24571
G1 X79.545 Y134.93 E43.40317
G1 X78.062 Y134.93 E43.71757
G1 X77.253 Y134.89 E43.88929
G1 X76.451 Y134.77 E44.06121
G1 X75.665 Y134.573 E44.23299
G1 X74.903 Y134.298 E44.40473
G1 X74.171 Y133.95 E44.57656
G1 X73.477 Y133.531 E44.74843
G1 X72.827 Y133.046 E44.92036
G1 X72.253 Y132.524 E45.08484
G1 X72.098 Y132.369 E45.13131
G1 X71.554 Y131.768 E45.30317
G1 X71.072 Y131.117 E45.47489
G1 X70.656 Y130.421 E45.64679
G1 X70.311 Y129.688 E45.81854
G1 X70.04 Y128.924 E45.99039
G1 X69.845 Y128.138 E46.16208
G1 X69.729 Y127.336 E46.33387
G1 X69.692 Y126.56 E46.49857
G1 X69.691 Y96.44 E52.88401
G1 X69.731 Y95.631 E53.05573
G1 X69.85 Y94.829 E53.22761
G1 X70.048 Y94.043 E53.39945
G1 X70.323 Y93.281 E53.57119
G1 X70.671 Y92.549 E53.74302
G1 X71.09 Y91.855 E53.91488
G1 X71.574 Y91.206 E54.08652
G1 X72.097 Y90.631 E54.2513
G1 X72.252 Y90.476 E54.29777
G1 X72.853 Y89.932 E54.46963
G0 F3927.3 X73.209 Y90.326
G1 F1800 X73.841 Y89.862 E54.63584
G1 X74.517 Y89.466 E54.80194
G1 X75.23 Y89.14 E54.96814
G1 X75.973 Y88.889 E55.1344
G1 X76.737 Y88.715 E55.30052
G1 X77.515 Y88.619 E55.46671
G1 X78.061 Y88.6 E55.58253
G1 X79.545 Y88.6 E55.89714
G1 X80.328 Y88.64 E56.06335
G1 X81.102 Y88.759 E56.22936
G1 X81.861 Y88.957 E56.39566
G1 X82.595 Y89.231 E56.56175
G1 X83.136 Y89.499 E56.68975
G1 X83.328 Y89.326 E56.74454
G1 X83.96 Y88.862 E56.91075
G1 X84.636 Y88.466 E57.07685
G1 X85.349 Y88.14 E57.24305
G1 X86.092 Y87.889 E57.40931
G1 X86.856 Y87.715 E57.57543
G1 X87.634 Y87.619 E57.74162
G1 X88.18 Y87.6 E57.85744
G1 X91.055 Y87.6 E58.46694
G1 X91.838 Y87.64 E58.63315
G1 X92.612 Y87.759 E58.79917
G1 X93.371 Y87.957 E58.96546
G1 X94.105 Y88.231 E59.13156
G1 X94.808 Y88.579 E59.29785
G1 X95.472 Y88.996 E59.46408
G1 X96.089 Y89.478 E59.63006
G1 X96.13 Y89.517 E59.64206
G1 X96.776 Y89.204 E59.79424
G1 X97.512 Y88.937 E59.96022
G1 X98.273 Y88.746 E60.12656
G1 X99.048 Y88.633 E60.2926
G1 X99.763 Y88.6 E60.44434
G1 X126.289 Y88.6 E66.06785
G1 X127.072 Y88.64 E66.23406
G1 X127.846 Y88.759 E66.40008
G1 X128.605 Y88.957 E66.56637
G1 X129.339 Y89.231 E66.73247
G1 X129.88 Y89.499 E66.86046
G1 X130.072 Y89.326 E66.91525
G1 X130.704 Y88.862 E67.08147
G1 X131.38 Y88.466 E67.24756
G1 X132.093 Y88.14 E67.41376
G1 X132.836 Y87.889 E67.58003
G1 X133.6 Y87.715 E67.74614
G1 X134.378 Y87.619 E67.91233
G1 X134.924 Y87.6 E68.02815
G1 X137.694 Y87.6 E68.61539
G1 X138.477 Y87.64 E68.7816
G1 X139.251 Y87.759 E68.94762
G1 X140.01 Y87.957 E69.11391
G1 X140.744 Y88.231 E69.28001
G1 X141.447 Y88.579 E69.44631
G1 X142.111 Y88.996 E69.61253
G1 X142.728 Y89.478 E69.77852
G1 X142.748 Y89.497 E69.78436
G1 X142.999 Y89.36 E69.84499
G1 X143.721 Y89.056 E70.01107
G1 X144.471 Y88.828 E70.17725
G1 X145.241 Y88.678 E70.34356
G1 X146.33 Y88.6 E70.57502
G1 X148.038 Y88.6 E70.93711
G1 X148.821 Y88.64 E71.10333
G1 X149.595 Y88.759 E71.26934
G1 X150.354 Y88.957 E71.43564
G1 X151.088 Y89.231 E71.60173
G1 X151.791 Y89.579 E71.76803
G1 X152.455 Y89.996 E71.93425
G1 X153.072 Y90.478 E72.10024
G1 X153.472 Y90.851 E72.21619
G1 X153.632 Y91.011 E72.26416
G1 X154.157 Y91.593 E72.43033
G1 X154.621 Y92.225 E72.59654
G1 X155.017 Y92.901 E72.76263
G1 X155.343 Y93.614 E72.92884
G1 X155.594 Y94.357 E73.0951
G1 X155.768 Y95.121 E73.26122
G1 X155.864 Y95.899 E73.4274
G1 X155.883 Y96.452 E73.54471
G1 X155.882 Y98.024 E73.87797
G1 X155.953 Y98.609 E74.0029
G1 X155.972 Y99.151 E74.11788
G1 X155.972 Y123.808 E79.34516
G1 X155.932 Y124.591 E79.51137
G1 X155.882 Y124.959 E79.59011
G1 X155.882 Y126.56 E79.92952
G1 X155.842 Y127.343 E80.09573
G1 X155.723 Y128.117 E80.26175
G1 X155.525 Y128.876 E80.42804
G1 X155.251 Y129.61 E80.59414
G1 X154.903 Y130.313 E80.76043
G1 X154.486 Y130.977 E80.92666
G1 X154.004 Y131.594 E81.09264
G1 X153.631 Y131.994 E81.20859
G1 X153.476 Y132.149 E81.25506
G1 X152.894 Y132.674 E81.42123
G1 X152.262 Y133.138 E81.58745
G1 X151.586 Y133.534 E81.75354
G1 X150.873 Y133.86 E81.91975
G1 X150.13 Y134.111 E82.08601
G1 X149.366 Y134.285 E82.25212
G1 X148.588 Y134.381 E82.41831
G1 X148.042 Y134.4 E82.53413
G1 X146.33 Y134.4 E82.89708
G1 X145.547 Y134.36 E83.06329
G1 X144.773 Y134.241 E83.2293
G1 X144.014 Y134.043 E83.3956
G1 X143.28 Y133.769 E83.56169
G1 X142.739 Y133.501 E83.68969
G1 X142.547 Y133.674 E83.74448
G1 X141.915 Y134.138 E83.91069
G1 X141.239 Y134.534 E84.07678
G1 X140.526 Y134.86 E84.24299
G1 X139.783 Y135.111 E84.40925
G1 X139.019 Y135.285 E84.57537
G1 X138.241 Y135.381 E84.74155
G1 X137.695 Y135.4 E84.85738
G1 X134.925 Y135.4 E85.44462
G1 X134.142 Y135.36 E85.61083
G1 X133.368 Y135.241 E85.77685
G1 X132.609 Y135.043 E85.94314
G1 X131.875 Y134.769 E86.10923
G1 X131.172 Y134.421 E86.27553
G1 X130.508 Y134.004 E86.44176
G1 X129.891 Y133.522 E86.60774
G1 X129.871 Y133.503 E86.61359
G1 X129.62 Y133.64 E86.67421
G1 X128.898 Y133.944 E86.84029
G1 X128.148 Y134.172 E87.00648
G1 X127.378 Y134.322 E87.17279
G1 X126.289 Y134.4 E87.40424
G1 X99.772 Y134.4 E93.02585
G1 X98.989 Y134.36 E93.19206
G1 X98.215 Y134.241 E93.35808
G1 X97.456 Y134.043 E93.52437
G1 X96.722 Y133.769 E93.69047
G1 X96.181 Y133.501 E93.81846
G1 X95.989 Y133.674 E93.87325
G1 X95.357 Y134.138 E94.03947
G1 X94.681 Y134.534 E94.20556
G1 X93.968 Y134.86 E94.37176
G1 X93.225 Y135.111 E94.53803
G1 X92.461 Y135.285 E94.70414
G1 X91.683 Y135.381 E94.87033
G1 X91.137 Y135.4 E94.98615
G1 X88.181 Y135.4 E95.61282
G1 X87.398 Y135.36 E95.77903
G1 X86.624 Y135.241 E95.94505
G1 X85.865 Y135.043 E96.11134
G1 X85.131 Y134.769 E96.27744
G1 X84.428 Y134.421 E96.44374
G1 X83.764 Y134.004 E96.60996
G1 X83.147 Y133.522 E96.77595
G1 X83.127 Y133.503 E96.7818
G1 X82.876 Y133.64 E96.84242
G1 X82.154 Y133.944 E97.0085
G1 X81.404 Y134.172 E97.17468
G1 X80.634 Y134.322 E97.34099
G1 X79.545 Y134.4 E97.57245
G1 X78.062 Y134.4 E97.88685
G1 X77.279 Y134.36 E98.05306
G1 X76.505 Y134.241 E98.21907
G1 X75.746 Y134.043 E98.38537
G1 X75.012 Y133.769 E98.55146
G1 X74.309 Y133.421 E98.71776
G1 X73.645 Y133.004 E98.88399
G1 X73.028 Y132.522 E99.04997
G1 X72.628 Y132.149 E99.16592
G1 X72.473 Y131.994 E99.21239
G1 X71.948 Y131.412 E99.37856
G1 X71.484 Y130.78 E99.54478
G1 X71.088 Y130.104 E99.71087
G1 X70.762 Y129.391 E99.87707
G1 X70.511 Y128.648 E100.04333
G1 X70.337 Y127.884 E100.20945
G1 X70.241 Y127.106 E100.37564
G1 X70.222 Y126.56 E100.49146
G1 X70.221 Y96.44 E106.8769
G1 X70.261 Y95.657 E107.04311
G1 X70.38 Y94.883 E107.20913
G1 X70.578 Y94.124 E107.37542
G1 X70.852 Y93.39 E107.54152
G1 X71.2 Y92.687 E107.70781
G1 X71.617 Y92.024 E107.87386
G1 X72.099 Y91.406 E108.04001
G1 X72.472 Y91.006 E108.15596
G1 X72.627 Y90.851 E108.20243
G1 X73.209 Y90.326 E108.3686
G0 F3927.3 X73.564 Y90.72
G1 F1800 X74.177 Y90.276 E108.52906
G1 X74.832 Y89.9 E108.68917
G1 X75.524 Y89.595 E108.8495
G1 X76.245 Y89.364 E109.01
G1 X76.986 Y89.211 E109.17041
G1 X78.061 Y89.13 E109.39895
G1 X79.545 Y89.13 E109.71356
G1 X80.3 Y89.17 E109.87385
G1 X81.047 Y89.289 E110.03421
G1 X81.777 Y89.487 E110.19456
G1 X82.482 Y89.761 E110.35491
G1 X83.154 Y90.107 E110.51515
G1 X83.211 Y90.145 E110.52967
G1 X83.683 Y89.72 E110.66432
G1 X84.296 Y89.276 E110.82479
G1 X84.951 Y88.9 E110.9849
G1 X85.643 Y88.595 E111.14522
G1 X86.364 Y88.364 E111.30573
G1 X87.105 Y88.211 E111.46613
G1 X88.18 Y88.13 E111.69468
G1 X91.055 Y88.13 E112.30418
G1 X91.81 Y88.17 E112.46446
G1 X92.557 Y88.289 E112.62482
G1 X93.287 Y88.487 E112.78517
G1 X93.992 Y88.761 E112.94553
G1 X94.664 Y89.107 E113.10576
G1 X95.296 Y89.523 E113.26617
G1 X96.054 Y90.174 E113.478
G1 X96.584 Y89.875 E113.607
G1 X97.278 Y89.575 E113.76729
G1 X98 Y89.351 E113.92755
G1 X98.742 Y89.203 E114.08795
G1 X99.763 Y89.13 E114.30496
G1 X126.289 Y89.13 E119.92847
G1 X127.044 Y89.17 E120.08875
G1 X127.791 Y89.289 E120.24911
G1 X128.521 Y89.487 E120.40947
G1 X129.226 Y89.761 E120.56982
G1 X129.898 Y90.107 E120.73006
G1 X129.955 Y90.145 E120.74458
G1 X130.427 Y89.72 E120.87923
G1 X131.04 Y89.276 E121.03969
G1 X131.695 Y88.9 E121.19981
G1 X132.387 Y88.595 E121.36013
G1 X133.108 Y88.364 E121.52063
G1 X133.849 Y88.211 E121.68104
G1 X134.924 Y88.13 E121.90959
G1 X137.694 Y88.13 E122.49683
G1 X138.449 Y88.17 E122.65711
G1 X139.196 Y88.289 E122.81747
G1 X139.926 Y88.487 E122.97782
G1 X140.631 Y88.761 E123.13817
G1 X141.303 Y89.107 E123.29841
G1 X141.935 Y89.523 E123.45882
G1 X142.664 Y90.149 E123.66253
G1 X142.817 Y90.052 E123.70093
G1 X143.494 Y89.716 E123.86116
G1 X144.203 Y89.453 E124.02148
G1 X144.936 Y89.267 E124.1818
G1 X145.685 Y89.159 E124.34223
G1 X146.33 Y89.13 E124.47911
G1 X148.038 Y89.13 E124.8412
G1 X148.793 Y89.17 E125.00149
G1 X149.54 Y89.289 E125.16185
G1 X150.27 Y89.487 E125.3222
G1 X150.975 Y89.761 E125.48255
G1 X151.647 Y90.107 E125.64279
G1 X152.279 Y90.523 E125.80319
G1 X153.097 Y91.226 E126.03185
G1 X153.257 Y91.386 E126.07982
G1 X153.763 Y91.948 E126.24014
G1 X154.207 Y92.561 E126.40061
G1 X154.583 Y93.216 E126.56072
G1 X154.888 Y93.908 E126.72104
G1 X155.119 Y94.629 E126.88155
G1 X155.272 Y95.37 E127.04195
G1 X155.353 Y96.452 E127.27198
G1 X155.352 Y98.052 E127.61118
G1 X155.426 Y98.673 E127.74376
G1 X155.442 Y99.151 E127.84515
G1 X155.442 Y123.808 E133.07244
G1 X155.402 Y124.563 E133.23272
G1 X155.352 Y124.923 E133.30977
G1 X155.352 Y126.56 E133.65682
G1 X155.312 Y127.315 E133.8171
G1 X155.193 Y128.062 E133.97746
G1 X154.995 Y128.792 E134.13782
G1 X154.721 Y129.497 E134.29817
G1 X154.375 Y130.169 E134.45841
G1 X153.959 Y130.801 E134.61881
G1 X153.256 Y131.619 E134.84747
G1 X153.101 Y131.774 E134.89394
G1 X152.539 Y132.28 E135.05426
G1 X151.926 Y132.724 E135.21472
G1 X151.271 Y133.1 E135.37484
G1 X150.579 Y133.405 E135.53516
G1 X149.858 Y133.636 E135.69566
G1 X149.117 Y133.789 E135.85607
G1 X148.042 Y133.87 E136.08461
G1 X146.33 Y133.87 E136.44756
G1 X145.575 Y133.83 E136.60784
G1 X144.828 Y133.711 E136.7682
G1 X144.098 Y133.513 E136.92856
G1 X143.393 Y133.239 E137.08891
G1 X142.721 Y132.893 E137.24915
G1 X142.664 Y132.855 E137.26367
G1 X142.192 Y133.28 E137.39832
G1 X141.579 Y133.724 E137.55878
G1 X140.924 Y134.1 E137.7189
G1 X140.232 Y134.405 E137.87922
G1 X139.511 Y134.636 E138.03972
G1 X138.77 Y134.789 E138.20013
G1 X137.695 Y134.87 E138.42868
G1 X134.925 Y134.87 E139.01592
G1 X134.17 Y134.83 E139.1762
G1 X133.423 Y134.711 E139.33656
G1 X132.693 Y134.513 E139.49691
G1 X131.988 Y134.239 E139.65726
G1 X131.316 Y133.893 E139.8175
G1 X130.684 Y133.477 E139.97791
G1 X129.955 Y132.851 E140.18162
G1 X129.802 Y132.948 E140.22002
G1 X129.125 Y133.284 E140.38025
G1 X128.416 Y133.547 E140.54057
G1 X127.683 Y133.733 E140.70089
G1 X126.934 Y133.841 E140.86132
G1 X126.289 Y133.87 E140.9982
G1 X99.772 Y133.87 E146.6198
G1 X99.017 Y133.83 E146.78008
G1 X98.27 Y133.711 E146.94044
G1 X97.54 Y133.513 E147.1008
G1 X96.835 Y133.239 E147.26115
G1 X96.163 Y132.893 E147.42139
G1 X96.106 Y132.855 E147.43591
G1 X95.634 Y133.28 E147.57056
G1 X95.021 Y133.724 E147.73102
G1 X94.366 Y134.1 E147.89114
G1 X93.674 Y134.405 E148.05146
G1 X92.953 Y134.636 E148.21196
G1 X92.212 Y134.789 E148.37237
G1 X91.137 Y134.87 E148.60092
G1 X88.181 Y134.87 E149.22759
G1 X87.426 Y134.83 E149.38787
G1 X86.679 Y134.711 E149.54823
G1 X85.949 Y134.513 E149.70858
G1 X85.244 Y134.239 E149.86894
G1 X84.572 Y133.893 E150.02917
G1 X83.94 Y133.477 E150.18958
G1 X83.211 Y132.851 E150.39329
G1 X83.058 Y132.948 E150.43169
G1 X82.381 Y133.284 E150.59192
